Numix-Light/16/status/indicator-keyboard-Da-4.svg

<?xml version="1.0" encoding="UTF-8" standalone="no"?>
<svg
   xmlns:dc="http://purl.org/dc/elements/1.1/"
   xmlns:cc="http://creativecommons.org/ns#"
   xmlns:rdf="http://www.w3.org/1999/02/22-rdf-syntax-ns#"
   xmlns:svg="http://www.w3.org/2000/svg"
   xmlns="http://www.w3.org/2000/svg"
   xmlns:sodipodi="http://sodipodi.sourceforge.net/DTD/sodipodi-0.dtd"
   xmlns:inkscape="http://www.inkscape.org/namespaces/inkscape"
   viewBox="0 0 16 16"
   id="svg2"
   version="1.1"
   inkscape:version="0.91 r13725"
   sodipodi:docname="indicator-keyboard-Da-4.svg">
  <metadata
     id="metadata14">
    <rdf:RDF>
      <cc:Work
         rdf:about="">
        <dc:format>image/svg+xml</dc:format>
        <dc:type
           rdf:resource="http://purl.org/dc/dcmitype/StillImage" />
      </cc:Work>
    </rdf:RDF>
  </metadata>
  <defs
     id="defs12" />
  <sodipodi:namedview
     pagecolor="#ffffff"
     bordercolor="#666666"
     borderopacity="1"
     objecttolerance="10"
     gridtolerance="10"
     guidetolerance="10"
     inkscape:pageopacity="0"
     inkscape:pageshadow="2"
     inkscape:window-width="640"
     inkscape:window-height="480"
     id="namedview10"
     showgrid="false"
     inkscape:zoom="14.75"
     inkscape:cx="8"
     inkscape:cy="8"
     inkscape:window-x="65"
     inkscape:window-y="24"
     inkscape:window-maximized="0"
     inkscape:current-layer="svg2" />
  <path
     style="fill:#353535;fill-opacity:1"
     d="M 1.5996094 0 C 0.71320937 2.9605947e-16 0 0.71320937 0 1.5996094 L 0 14.400391 C 2.9605947e-16 15.286791 0.71320937 16 1.5996094 16 L 14.400391 16 C 15.286791 16 16 15.286791 16 14.400391 L 16 1.5996094 C 16 0.71320937 15.286791 0 14.400391 0 L 1.5996094 0 z M 2.9726562 4.8046875 C 3.4766562 4.8046875 3.939375 4.8719062 4.359375 5.0039062 C 4.779375 5.1359063 5.1394531 5.3336562 5.4394531 5.5976562 C 5.7454531 5.8616563 5.9823906 6.1918906 6.1503906 6.5878906 C 6.3183906 6.9838906 6.4023437 7.4446562 6.4023438 7.9726562 C 6.4023438 8.5066563 6.3183906 8.9711875 6.1503906 9.3671875 C 5.9823906 9.7631875 5.7454531 10.093422 5.4394531 10.357422 C 5.1394531 10.621422 4.779375 10.819172 4.359375 10.951172 C 3.939375 11.083172 3.4766562 11.150391 2.9726562 11.150391 C 2.7206563 11.150391 2.4576406 11.135469 2.1816406 11.105469 C 1.9056406 11.081469 1.663125 11.042281 1.453125 10.988281 L 1.453125 4.9765625 C 1.663125 4.9165625 1.9056406 4.8736094 2.1816406 4.8496094 C 2.4576406 4.8196094 2.7206562 4.8046875 2.9726562 4.8046875 z M 3.0449219 5.3359375 C 2.7209219 5.3359375 2.4839844 5.3452812 2.3339844 5.3632812 C 2.1899844 5.3812812 2.1004531 5.3924375 2.0644531 5.3984375 L 2.0644531 10.556641 C 2.1004531 10.562641 2.1899844 10.573797 2.3339844 10.591797 C 2.4839844 10.609797 2.7209219 10.619141 3.0449219 10.619141 C 3.4949219 10.619141 3.8886094 10.559453 4.2246094 10.439453 C 4.5606094 10.313453 4.8423125 10.136203 5.0703125 9.9082031 C 5.2983125 9.6802031 5.4699844 9.4040781 5.5839844 9.0800781 C 5.6979844 8.7500781 5.7539062 8.3806562 5.7539062 7.9726562 C 5.7539062 7.5646562 5.6979844 7.199 5.5839844 6.875 C 5.4699844 6.551 5.2983125 6.274875 5.0703125 6.046875 C 4.8423125 5.818875 4.5606094 5.6453906 4.2246094 5.5253906 C 3.8886094 5.3993906 3.4949219 5.3359375 3.0449219 5.3359375 z M 9.140625 6.3359375 C 9.446625 6.3359375 9.7040625 6.3807031 9.9140625 6.4707031 C 10.130062 6.5547031 10.303547 6.6740781 10.435547 6.8300781 C 10.567547 6.9800781 10.664609 7.1591406 10.724609 7.3691406 C 10.784609 7.5791406 10.814453 7.8086875 10.814453 8.0546875 L 10.814453 10.988281 C 10.754453 11.006281 10.666734 11.026781 10.552734 11.050781 C 10.438734 11.068781 10.30625 11.089281 10.15625 11.113281 C 10.00625 11.137281 9.8383438 11.155969 9.6523438 11.167969 C 9.4723438 11.185969 9.2877031 11.195313 9.0957031 11.195312 C 8.8497031 11.195312 8.6201562 11.167281 8.4101562 11.113281 C 8.2061563 11.059281 8.0270937 10.975328 7.8710938 10.861328 C 7.7210937 10.741328 7.6017188 10.592109 7.5117188 10.412109 C 7.4277188 10.226109 7.3847656 10.000328 7.3847656 9.7363281 C 7.3847656 9.4843281 7.4332969 9.2698437 7.5292969 9.0898438 C 7.6252969 8.9098438 7.7595938 8.7624375 7.9335938 8.6484375 C 8.1075937 8.5284375 8.3146875 8.4407188 8.5546875 8.3867188 C 8.7946875 8.3327188 9.0558906 8.3066406 9.3378906 8.3066406 C 9.4218906 8.3066406 9.5096094 8.3122187 9.5996094 8.3242188 C 9.6956094 8.3302187 9.7851406 8.341375 9.8691406 8.359375 C 9.9591406 8.371375 10.03375 8.3862969 10.09375 8.4042969 C 10.15975 8.4162969 10.204516 8.4294063 10.228516 8.4414062 L 10.228516 8.1523438 C 10.228516 7.9903438 10.217359 7.8355469 10.193359 7.6855469 C 10.169359 7.5295469 10.11525 7.3914844 10.03125 7.2714844 C 9.9532501 7.1454844 9.8394531 7.0466094 9.6894531 6.9746094 C 9.5454531 6.8966094 9.3532812 6.8574219 9.1132812 6.8574219 C 8.7712812 6.8574219 8.5156563 6.8816875 8.3476562 6.9296875 C 8.1796562 6.9776875 8.0565156 7.016875 7.9785156 7.046875 L 7.8984375 6.5332031 C 8.0004375 6.4852031 8.1552344 6.4404375 8.3652344 6.3984375 C 8.5812344 6.3564375 8.840625 6.3359375 9.140625 6.3359375 z M 9.3203125 8.8105469 C 9.1763125 8.8105469 9.0251406 8.8217031 8.8691406 8.8457031 C 8.7131406 8.8637031 8.5695 8.9084687 8.4375 8.9804688 C 8.3055 9.0464687 8.1972813 9.1397656 8.1132812 9.2597656 C 8.0292813 9.3797656 7.9882812 9.5383281 7.9882812 9.7363281 C 7.9882812 9.9103281 8.0143594 10.057734 8.0683594 10.177734 C 8.1283594 10.297734 8.2105 10.394797 8.3125 10.466797 C 8.4205 10.538797 8.5454531 10.592906 8.6894531 10.628906 C 8.8394531 10.658906 9.0073594 10.673828 9.1933594 10.673828 C 9.4213594 10.673828 9.6191094 10.666297 9.7871094 10.654297 C 9.9611093 10.636297 10.108516 10.615797 10.228516 10.591797 L 10.228516 8.953125 C 10.162516 8.923125 10.058062 8.8932813 9.9140625 8.8632812 C 9.7700625 8.8272812 9.5723125 8.8105469 9.3203125 8.8105469 z M 13.646484 8.8417969 L 14.044922 8.8417969 L 14.044922 11.486328 L 14.546875 11.486328 L 14.546875 11.796875 L 14.044922 11.796875 L 14.044922 12.896484 L 13.669922 12.896484 L 13.669922 11.796875 L 11.833984 11.796875 L 11.833984 11.5625 C 11.904184 11.3753 12.0002 11.163688 12.125 10.929688 C 12.2537 10.695687 12.398694 10.456638 12.558594 10.210938 C 12.718494 9.9652374 12.892878 9.7261874 13.080078 9.4921875 C 13.267278 9.2542875 13.455385 9.0367969 13.646484 8.8417969 z M 13.669922 9.2695312 C 13.533423 9.4099312 13.394306 9.5706063 13.253906 9.7539062 C 13.113506 9.9372063 12.980263 10.129225 12.851562 10.328125 C 12.726762 10.523125 12.6092 10.719069 12.5 10.917969 C 12.3908 11.116869 12.298709 11.306928 12.224609 11.486328 L 13.669922 11.486328 L 13.669922 9.2695312 z "
     id="path4" />
</svg>

<svg xmlns="http://www.w3.org/2000/svg" viewBox="0 0 16 16">
 <path d="m 1.6 0 c -0.886 0 -1.6 0.713 -1.6 1.6 l 0 12.801 c 0 0.886 0.713 1.6 1.6 1.6 l 12.801 0 c 0.886 0 1.6 -0.713 1.6 -1.6 l 0 -12.801 c 0 -0.886 -0.713 -1.6 -1.6 -1.6 l -12.801 0 z m 1.373 4.805 c 0.504 0 0.967 0.067 1.387 0.199 c 0.42 0.132 0.78 0.33 1.08 0.594 c 0.306 0.264 0.543 0.594 0.711 0.99 c 0.168 0.396 0.252 0.857 0.252 1.385 c 0 0.534 -0.084 0.999 -0.252 1.395 c -0.168 0.396 -0.405 0.726 -0.711 0.99 c -0.3 0.264 -0.66 0.462 -1.08 0.594 c -0.42 0.132 -0.883 0.199 -1.387 0.199 c -0.252 0 -0.515 -0.015 -0.791 -0.045 c -0.276 -0.024 -0.519 -0.063 -0.729 -0.117 l 0 -6.01 c 0.21 -0.06 0.453 -0.103 0.729 -0.127 c 0.276 -0.03 0.539 -0.045 0.791 -0.045 z m 0.072 0.531 c -0.324 0 -0.561 0.009 -0.711 0.027 c -0.144 0.018 -0.234 0.029 -0.27 0.035 l 0 5.158 c 0.036 0.006 0.126 0.017 0.27 0.035 c 0.15 0.018 0.387 0.027 0.711 0.027 c 0.45 0 0.844 -0.06 1.18 -0.18 c 0.336 -0.126 0.618 -0.303 0.846 -0.531 c 0.228 -0.228 0.4 -0.504 0.514 -0.828 c 0.114 -0.33 0.17 -0.699 0.17 -1.107 c 0 -0.408 -0.056 -0.774 -0.17 -1.098 c -0.114 -0.324 -0.286 -0.6 -0.514 -0.828 c -0.228 -0.228 -0.51 -0.401 -0.846 -0.521 c -0.336 -0.126 -0.73 -0.189 -1.18 -0.189 z m 6.096 1 c 0.306 0 0.563 0.045 0.773 0.135 c 0.216 0.084 0.389 0.203 0.521 0.359 c 0.132 0.15 0.229 0.329 0.289 0.539 c 0.06 0.21 0.09 0.44 0.09 0.686 l 0 2.934 c -0.06 0.018 -0.148 0.038 -0.262 0.063 c -0.114 0.018 -0.246 0.038 -0.396 0.063 c -0.15 0.024 -0.318 0.043 -0.504 0.055 c -0.18 0.018 -0.365 0.027 -0.557 0.027 c -0.246 0 -0.476 -0.028 -0.686 -0.082 c -0.204 -0.054 -0.383 -0.138 -0.539 -0.252 c -0.15 -0.12 -0.269 -0.269 -0.359 -0.449 c -0.084 -0.186 -0.127 -0.412 -0.127 -0.676 c 0 -0.252 0.049 -0.466 0.145 -0.646 c 0.096 -0.18 0.23 -0.327 0.404 -0.441 c 0.174 -0.12 0.381 -0.208 0.621 -0.262 c 0.24 -0.054 0.501 -0.08 0.783 -0.08 c 0.084 0 0.172 0.006 0.262 0.018 c 0.096 0.006 0.186 0.017 0.27 0.035 c 0.09 0.012 0.165 0.027 0.225 0.045 c 0.066 0.012 0.111 0.025 0.135 0.037 l 0 -0.289 c 0 -0.162 -0.011 -0.317 -0.035 -0.467 c -0.024 -0.156 -0.078 -0.294 -0.162 -0.414 c -0.078 -0.126 -0.192 -0.225 -0.342 -0.297 c -0.144 -0.078 -0.336 -0.117 -0.576 -0.117 c -0.342 0 -0.598 0.024 -0.766 0.072 c -0.168 0.048 -0.291 0.087 -0.369 0.117 l -0.08 -0.514 c 0.102 -0.048 0.257 -0.093 0.467 -0.135 c 0.216 -0.042 0.475 -0.063 0.775 -0.063 z m 0.18 2.475 c -0.144 0 -0.295 0.011 -0.451 0.035 c -0.156 0.018 -0.3 0.063 -0.432 0.135 c -0.132 0.066 -0.24 0.159 -0.324 0.279 c -0.084 0.12 -0.125 0.279 -0.125 0.477 c 0 0.174 0.026 0.321 0.08 0.441 c 0.06 0.12 0.142 0.217 0.244 0.289 c 0.108 0.072 0.233 0.126 0.377 0.162 c 0.15 0.03 0.318 0.045 0.504 0.045 c 0.228 0 0.426 -0.008 0.594 -0.02 c 0.174 -0.018 0.321 -0.038 0.441 -0.063 l 0 -1.639 c -0.066 -0.03 -0.17 -0.06 -0.314 -0.09 c -0.144 -0.036 -0.342 -0.053 -0.594 -0.053 z m 4.326 0.031 l 0.398 0 l 0 2.645 l 0.502 0 l 0 0.311 l -0.502 0 l 0 1.1 l -0.375 0 l 0 -1.1 l -1.836 0 l 0 -0.234 c 0.07 -0.187 0.166 -0.399 0.291 -0.633 c 0.129 -0.234 0.274 -0.473 0.434 -0.719 c 0.16 -0.246 0.334 -0.485 0.521 -0.719 c 0.187 -0.238 0.375 -0.455 0.566 -0.65 z m 0.023 0.428 c -0.136 0.14 -0.276 0.301 -0.416 0.484 c -0.14 0.183 -0.274 0.375 -0.402 0.574 c -0.125 0.195 -0.242 0.391 -0.352 0.59 c -0.109 0.199 -0.201 0.389 -0.275 0.568 l 1.445 0 l 0 -2.217 z" style="fill:#353535;fill-opacity:1"/>
</svg>
